X:1
T:Recepte pour un flux
T:Jean Guyon
T:Source : Livre V de 25 chansons nouvelles à 4 parties---Paris---N.du Chemin---1550. Editor : André Vierendeels (10/03/18) Notes : Original clefs : C1, C3, C3, F3 Original note values have been halved Editorial accidentals above the stave
T:Recepte pour un flux
T:©
T:©
T:©
T:©
T:©
C:Jean Guyon
Z:©
%%score [ 1 2 3 4 ]
L:1/8
Q:1/4=120
M:2/2
K:C
V:1 treble nm="Soprano" snm="S"
V:2 treble-8 nm="Tenor 1" snm="T 1"
V:3 treble-8 nm="Tenor 2" snm="T 2"
V:4 bass nm="Bass" snm="B"
V:1
 z4 G2 GG | A2 c2 B2 A2- | A2 G4 F2 | G2 DE F2 G2 | F2 G2 z2 DE | F2 G4 F2 | G8- | G4 z4 | %8
w: Re- cep- te|pour un flux de|_ bour- *|se, pour un flux de|bour- se, pour un|flux de bour-|se,|_|
 G2 GG A2 G2- | GE F2 G4- | G4 z2 G2 | GG A2 G2 E2 | F2 G2 z2 G2 | F2 D2 E4 | z2 G2 F2 D2 | %15
w: cou- chez vous a- vant|_ qu'il soit nuict,|_ cou-|chez vous a- vant qu'il|soit nuict, dor-|mez tous- iours,|dor- mez tous-|
 E2 z G A2 G2 | z2 G2 A2 GA | Bc d4 c2- | c2 B2 c2 c2 | B8 | z4 z2 d2 | e2 e2 d2 c2 | %22
w: iours et pour- quoy?|et pour- * *||* * quoy? pour-|ce,|car|en dor- mant rien|
 c2 B2 c2 z c | AA B2 G2 z c | BcdB c2 A2 | G2 G2 G2 F2 | G2 G2 A2 cB | AG G4 F2 | G4 z2 d2 | %29
w: ne vous nuit: rien|ne vous nuit, mais, mais|si vous ai- mez le de-|duit, d'ha- bi- ter|la bel- le au _|_ _ _ corps|gent, par|
 e2 e2 d2 c2 | c2 B2 c4 | z2 A2 B2 B2 | A2 G2 G2 F2 | G8- | G8- | G8- | G8 |] %37
w: no- stre da- me,|il vous fault,|il vous fault|ar- gent, ar- *|gent.|_|||
V:2
 d2 dd e2 g2 | f2 e2 f4 | e4 d2 dd | c2 B2 A2 G2 | A2 B2 G3 G | d2 c2 d4 | B4 d2 dd | e2 d2 B2 c2 | %8
w: Re- cep- te pour un|flux de bour-|se, re- cep- te|pour un flux de|bour- se, pour un|flux de bour-|se, cou- chez vous|a- vant qu'il soit|
 d2 z2 z4 | z2 d2 dd e2 | d2 B2 c2 dd | c2 A2 B2 z2 | d6 c2 | A2 B2 z4 | e4 d2 d2 | c2 z e d2 e2 | %16
w: nuict,|cou- chez vous a-|vant qu'il soit nuict,dor- *|mez tous- iours,|dor- mez|tous- iours|dor- mez tous-|iours, et pour- quoy?|
 z2 e2 f2 e2 | z2 g2 f4 | g2 d2 g4- | g8 | z8 | g2 gg f2 e2 | f2 d2 c2 z2 | z2 f2 e2 f2 | %24
w: et pour- quoy?|et pour-|quoy? pour- ce,|_||car en dor- mant rien|ne vous nuit:|mais si vous|
 g4 e2 f2 | d4 e2 c2 | d2 d2 e2 e2 | f2 d2 c2 z c | d2 e2 z2 g2 | g2 g2 f2 e2 | a2 g2 e4 | %31
w: ai- mez le|de- duit, d'ha-|bi- ter la bel-|le'au corps gent, au|corps gent, par|no- stre da- me,|il vous fault,|
 g2 aa g2 d2 | e4 d4 | B2 G2 GA B2 | G2 c2 B2 e2 | d4 c2 e2 | d8 |] %37
w: par no- stre da- me'il|fault ar-|gent, par no- stre da-|me, il fault ar-||gent.|
V:3
 B2 BB c2 e2 | d2 c2 dcAB | cBAG A4 | G4 z4 | d2 dd c2 B2 | A2 G2 A4 | G4 B2 BB | c2 B2 d2 c2 | %8
w: Re- cep- te pour un|flux de bour- * * *||se,|re- cep- te pour un|flux de bour-|se, cou- chez vous|a- vant qu'il soit|
 B4 d2 dd | e2 d2 B2 c2 | d4 z4 | z2 d4 c2 | A2 B2 z2 e2 | d2 d2 c4 | z2 G2 A2 B2 | G4 z2 G2 | %16
w: nuict, cou- chez vous|a- vant qu'il soit|nuict,|dor- mez|tous- iours dor-|mez tous- iours|dor- mez tous-|iours, et|
 A2 B2 z A c2 | B4 z2 c2 | d4 c2 e2 | d2 d2 e2 e2 | d2 c2 c2 B2 | c4 z4 | z2 f2 efge | %23
w: pour- quoy? et pour-|quoy? et|pour- quoy? pour|ce, car en dor-|mant rien ne vous|nuit:|mais si vous ai- mez|
 f2 d2 c2 z c | d2 B2 z2 c2 | BcdB c2 A2 | G4 z2 c2 | c2 B2 c2 A2 | B2 c4 B2 | c4 z2 c2 | %30
w: le de- duit, le|de- duit, le|de- * * * * *|duit, d'ha-|bi- ter la bel-|le au corps|gent, par|
 d2 d2 c2 cc | d2 d2 d2 B2 | c4 A4 | G4 z2 d2 | e2 e2 d2 c2 | c2 B2 c4- | c2 BA B4 |] %37
w: no- stre da- me, par|no- stre da- me'il|fault ar-|gent, par|no- stre da- me,|il fault ar-|* * * gent.|
V:4
 G,2 G,G, C,2 C,2 |"^#" F,D, A,2 D,4 | z4 D,2 D,D, | E,2 G,2 F,2 E,2 | D,2 G,2 C,2 G,2 | %5
w: Re- cep- te pour un|flux de bour- se,|re- cep- te|pour un flux de|bour- se, pour un|
 F,2 E,2 D,4 | G,8 | z2 G,2 G,G, A,2 | G,2 E,2 F,2 G,2 | z8 | G,2 G,G, A,2 G,2 | E,2 F,2 G,G, A,2 | %12
w: flux de bour-|se,|cou- chez vous a-|vant qu'il soit nuict,||cou- chez vous a- vant|qu'il soit nuict, dor- mez|
 D,2 G,2 z2 C,2 | F,2 G,2 C,4 | z2 C,2 F,2 G,2 | C,4 z2 E,2 | F,2 E,2 z4 | G,4 A,4 | G,4 z2 C,2 | %19
w: tous- iours, dor-|mez tous- iours,|dor- mez tous-|iours, et|pour- quoy?|et pour-|quoy? pour-|
 G,4 G,2 G,G, | F,2 E,2 F,2 D,2 | C,4 z4 | z4 C2 B,C | D2 B,2 C2 A,2 | G,2 G,2 CCF,F, | %25
w: ce, car en dor-|mant rien ne vous|nuit:|mais si vous|ai- mez le de-|duit, mais si vous ai- mez|
 G,2 G,2 C,2 C2 | C2 B,2 A,4 | F,2 G,2 A,4 | G,2 C,2 G,4 | C,4 z4 | z2 G,2 A,2 A,2 | G,2 F,2 G,4 | %32
w: le de- duit, d'ha-|bi- ter la|bel- le'au corps|gent, au corps|gent,|par no- stre|da- me'il fault|
 C,4 D,2 D,2 | E,2 E,2 D,2 B,,2 | C,2 C,2 G,2 C,2 | G,4 C,4 | G,8 |] %37
w: a- gent, par|no- stre da- me'il|fault ar- gent, il|fault ar-|gent.|

